papirus/64x64/places/folder-meocloud.svg

<?xml version="1.0" encoding="UTF-8" standalone="no"?>
<svg
   xmlns:dc="http://purl.org/dc/elements/1.1/"
   xmlns:cc="http://creativecommons.org/ns#"
   xmlns:rdf="http://www.w3.org/1999/02/22-rdf-syntax-ns#"
   xmlns:svg="http://www.w3.org/2000/svg"
   xmlns="http://www.w3.org/2000/svg"
   height="64"
   version="1.1"
   width="64"
   viewBox="0 0 64.000001 64.000001"
   id="svg2">
  <defs
     id="defs13" />
  <metadata
     id="metadata7">
    <rdf:RDF>
      <cc:Work
         rdf:about="">
        <dc:format>image/svg+xml</dc:format>
        <dc:type
           rdf:resource="http://purl.org/dc/dcmitype/StillImage" />
        <dc:title />
      </cc:Work>
    </rdf:RDF>
  </metadata>
  <g
     transform="translate(0 -988.36)"
     id="layer1">
    <path
       d="m7 1035.9v-34.988c0-1.3845 1.1235-2.653 2.5-2.5001h19.5l6 4.9992h19.628s2.3718 0 2.3718 2.4992v29.99c0 1.3845-1.115 2.4992-2.5 2.4992h-44.999c-1.385 0-2.5-1.1146-2.5-2.4992z"
       fill="#9b9b9b"
       id="path5171" />
    <path
       d="m33.68 1003.3-3.68 4.088h-20.5c-2.5 0-2.5 2.396-2.5 2.396v2s0-2.396 2.5-2.396h20.5l4.5-5h0.48633l-1.3066-1.0879zm22.355 1.5645c0.57756 0.4666 0.95676 1.2108 0.96289 2.0039-0.0091-1.0703-0.45872-1.6611-0.96289-2.0039z"
       opacity=".1"
       id="path5041" />
    <path
       d="m57 1040.9v-35c0-1.385-1.1235-2.653-2.5-2.5h-20l-4.5 5h-20.5c-2.5 0-2.5 2.3959-2.5 2.3959v30.104c0 1.385 1.115 2.5 2.5 2.5h45c1.385 0 2.5-1.115 2.5-2.5z"
       fill="#ababab"
       id="path5173" />
    <path
       fill="#fff"
       transform="translate(0 988.36)"
       d="m34.5 15l-4.5 5h-20.5c-2.5 0-2.5 2.396-2.5 2.396v1s0-2.396 2.5-2.396h20.5l4.5-5h20c1.377-0.153 2.5 1.115 2.5 2.5v-1c0-1.385-1.123-2.653-2.5-2.5h-20z"
       opacity=".1"
       id="path5029" />
    <path
       d="m7 1040.9v1c0 1.385 1.115 2.5 2.5 2.5h45c1.385 0 2.5-1.115 2.5-2.5v-1c0 1.385-1.115 2.5-2.5 2.5h-45c-1.385 0-2.5-1.115-2.5-2.5z"
       opacity=".2"
       id="path5034" />
    <path
       fill="#fff"
       transform="translate(0 988.36)"
       d="m9.5 10.014c-1.3765-0.1536-2.5 1.115-2.5 2.5v1c0-1.385 1.1235-2.654 2.5-2.5h19.5l6 4.998h19.629s2.371 0.001 2.371 2.5v-1c0-2.499-2.371-2.5-2.371-2.5h-19.629l-6-4.998h-19.5z"
       opacity=".1"
       id="path5024" />
  </g>
  <rect
     ry="0.66441441"
     rx="0.7434476"
     y="28"
     x="22"
     height="20"
     width="20"
     id="rect4141"
     style="opacity:0.00100002;fill:#000000;fill-opacity:1;stroke:none;stroke-width:2;stroke-linecap:round;stroke-linejoin:round;stroke-miterlimit:4;stroke-dasharray:none;stroke-opacity:1" />
  <path
     style="opacity:0.65;fill:#000000;fill-opacity:1"
     d="m 34.398438,30 c -2.405122,0 -4.604272,1.352654 -5.695314,3.496094 -0.477228,-0.19488 -0.988418,-0.295754 -1.503906,-0.296876 -2.000798,0 -3.68983,1.481998 -3.95703,3.464844 C 21.305228,37.329504 20.00224,39.151216 20,41.199218 20,43.850258 22.149902,46 24.800782,46 l 14.398436,0 C 41.8501,46 44,43.850258 44,41.199218 c -0.0016,-2.03728 -1.288376,-3.849676 -3.210938,-4.523436 0.0062,-0.0912 0.0086,-0.18568 0.0118,-0.277344 C 40.800782,32.863878 37.932998,30 34.398438,30 Z m 0,4 c 1.36948,0 2.39361,1.022774 2.398438,2.390624 -7.4e-5,0.0012 4.4e-5,0.011 0,0.0118 a 4.0004,4.0004 0 0 0 2.667968,4.046874 C 39.79794,40.565878 39.998354,40.84819 40,41.199218 40,41.688472 39.688344,42 39.199218,42 L 24.800782,42 C 24.312852,42 24.001512,41.690314 24,41.203124 l 0,-0.004 c 0.0018,-0.354302 0.203218,-0.63462 0.539062,-0.75 a 4.0004,4.0004 0 0 0 2.664062,-3.246094 4.0004,4.0004 0 0 0 5.066408,-1.890624 C 32.682922,34.500452 33.494024,34 34.398438,34 Z"
     id="path4990" />
</svg>

<?xml version="1.0" encoding="UTF-8" standalone="no"?>
<svg id="svg2" xmlns:rdf="http://www.w3.org/1999/02/22-rdf-syntax-ns#" xmlns="http://www.w3.org/2000/svg" height="64" width="64" version="1.1" xmlns:cc="http://creativecommons.org/ns#" viewBox="0 0 64.000001 64.000001" xmlns:dc="http://purl.org/dc/elements/1.1/">
 <metadata id="metadata7">
  <rdf:RDF>
   <cc:Work rdf:about="">
    <dc:format>image/svg+xml</dc:format>
    <dc:type rdf:resource="http://purl.org/dc/dcmitype/StillImage"/>
    <dc:title/>
   </cc:Work>
  </rdf:RDF>
 </metadata>
 <g id="layer1" transform="translate(0 -988.36)">
  <path id="path5171" d="m7 1035.9v-34.988c0-1.3845 1.1235-2.653 2.5-2.5001h19.5l6 4.9992h19.628s2.3718 0 2.3718 2.4992v29.99c0 1.3845-1.115 2.4992-2.5 2.4992h-44.999c-1.385 0-2.5-1.1146-2.5-2.4992z" fill="#9b9b9b"/>
  <path id="path5041" opacity=".1" d="m33.68 1003.3-3.68 4.088h-20.5c-2.5 0-2.5 2.396-2.5 2.396v2s0-2.396 2.5-2.396h20.5l4.5-5h0.48633l-1.3066-1.0879zm22.355 1.5645c0.57756 0.4666 0.95676 1.2108 0.96289 2.0039-0.0091-1.0703-0.45872-1.6611-0.96289-2.0039z"/>
  <path id="path5173" d="m57 1040.9v-35c0-1.385-1.1235-2.653-2.5-2.5h-20l-4.5 5h-20.5c-2.5 0-2.5 2.3959-2.5 2.3959v30.104c0 1.385 1.115 2.5 2.5 2.5h45c1.385 0 2.5-1.115 2.5-2.5z" fill="#ababab"/>
  <path id="path5029" opacity=".1" d="m34.5 15l-4.5 5h-20.5c-2.5 0-2.5 2.396-2.5 2.396v1s0-2.396 2.5-2.396h20.5l4.5-5h20c1.377-0.153 2.5 1.115 2.5 2.5v-1c0-1.385-1.123-2.653-2.5-2.5h-20z" transform="translate(0 988.36)" fill="#fff"/>
  <path id="path5034" opacity=".2" d="m7 1040.9v1c0 1.385 1.115 2.5 2.5 2.5h45c1.385 0 2.5-1.115 2.5-2.5v-1c0 1.385-1.115 2.5-2.5 2.5h-45c-1.385 0-2.5-1.115-2.5-2.5z"/>
  <path id="path5024" opacity=".1" d="m9.5 10.014c-1.3765-0.1536-2.5 1.115-2.5 2.5v1c0-1.385 1.1235-2.654 2.5-2.5h19.5l6 4.998h19.629s2.371 0.001 2.371 2.5v-1c0-2.499-2.371-2.5-2.371-2.5h-19.629l-6-4.998h-19.5z" transform="translate(0 988.36)" fill="#fff"/>
 </g>
 <rect id="rect4141" opacity="0.001" rx=".74345" ry=".66441" height="20" width="20" y="28" x="22"/>
 <path id="path4990" opacity=".65" d="m34.398 30c-2.4051 0-4.6043 1.3527-5.6953 3.4961-0.47723-0.19488-0.98842-0.29575-1.5039-0.29688-2.0008 0-3.6898 1.482-3.957 3.4648-1.937 0.666-3.24 2.487-3.242 4.535 0 2.651 2.15 4.801 4.801 4.801h14.398c2.651 0 4.801-2.15 4.801-4.801-0.0016-2.0373-1.2884-3.8497-3.2109-4.5234 0.0062-0.0912 0.0086-0.18568 0.0118-0.27734 0-3.534-2.868-6.398-6.403-6.398zm0 4c1.3695 0 2.3936 1.0228 2.3984 2.3906-0.000074 0.0012 0.000044 0.011 0 0.0118a4.0004 4.0004 0 0 0 2.668 4.0469c0.334 0.117 0.534 0.399 0.536 0.75 0 0.489-0.312 0.801-0.801 0.801h-14.398c-0.488 0-0.799-0.31-0.801-0.797v-0.004c0.0018-0.3543 0.20322-0.63462 0.53906-0.75a4.0004 4.0004 0 0 0 2.6641 -3.2461 4.0004 4.0004 0 0 0 5.0664 -1.8906c0.413-0.812 1.224-1.312 2.128-1.312z"/>
</svg>
